X:1
T:Harre, Meine Seele, 10.11.10.11.9.10
T:Harre, Meine Seele, 10.11.10.11.9.10
T:Henri Abraham César Malan (1787–1864)
T:Public Domain Courtesy of the Cyber Hymnal™
C:Henri Abraham César Malan (1787–1864)
Z:Public Domain
Z:Courtesy of the Cyber Hymnal™
%%score ( 1 2 ) ( 3 4 )
L:1/8
Q:1/4=112
M:4/4
K:D
V:1 treble 
V:2 treble 
V:3 bass 
V:4 bass 
V:1
 [DA]3 [DA] [DB]2 [DA]2 | [DF]4 D4 | [CE]4 [DF]3 [EG] | [FA]8 | [FA]3 [FA] [GB]2 [FA]2 | [DF]4 D4 | %6
 [DE]3 [DE] [CG]2 [CE]2 | [A,D]8 | [CG]4 [EG]2 [DF]2 | [CE]8 | [DA]3 [DB] [DA]2 [EG]2 | [DF]8 | %12
 [DG]3 [DG] [DB]2 [DB]2 | [CA]4 [Fd]4 | [Ec]3 [Ec] [DB]2 [DB]2 | [CA]8 | [DA]4 [DB]2 [DA]2 | %17
 [DF]4 [A,D]4 | [CE]4 [DF]3 [EG] | [FA]8 | [DA]3 [DA] [Dd]2 [Ec]2 | [Ec]4 [DB]2 [Ge]2 | %22
 [Fd]4 [Ec]4 | [Fd]8 |] %24
V:2
 x8 | x4 D4 | x8 | x8 | x8 | x4 D4 | x8 | x8 | x8 | x8 | x8 | x8 | x8 | x8 | x8 | x8 | x8 | x8 | %18
 x8 | x8 | x8 | x8 | x8 | x8 |] %24
V:3
 [D,F,]3 [D,F,] [D,G,]2 [D,F,]2 | [D,A,]4 [F,A,]4 | A,4 [A,,A,]3 [A,,A,] | [D,A,]8 | %4
 [D,D]3 [D,D] [D,D]2 [D,D]2 | [D,A,]4 [F,A,]4 | [G,B,]3 [G,B,] A,2 [A,,G,]2 | [D,F,]8 | %8
 [A,,E,]4 [C,A,]2 [D,A,]2 | [A,,A,]8 | [A,,F,]3 [A,,G,] [A,,F,]2 [C,A,]2 | [D,A,]8 | %12
 E,3 E, [E,^G,]2 [E,G,]2 | [F,A,]4 [F,A,]4 | [E,A,]3 [E,A,] [E,A,]2 [E,^G,]2 | [A,,A,]8 | %16
 [D,F,]4 [D,G,]2 [D,F,]2 | [D,A,]4 [F,A,]4 | [G,A,]4 [F,A,]3 [E,A,] | [D,A,]8 | %20
 [D,F,]3 [D,F,] [F,A,]2 [F,^A,]2 | [G,^A,]4 [G,B,]2 [E,B,]2 | A,4 [A,,A,]4 | [D,A,]8 |] %24
V:4
 x8 | x8 | A,4 x4 | x8 | x8 | x8 | x4 A,2 x2 | x8 | x8 | x8 | x8 | x8 | E,3 E, x4 | x8 | x8 | x8 | %16
 x8 | x8 | x8 | x8 | x8 | x8 | A,4 x4 | x8 |] %24

